web/packages/design/src/ResourceIcon/assets/atlassian.svg

<svg width="72" height="72" viewBox="0 0 72 72" fill="none" xmlns="http://www.w3.org/2000/svg">
<g clip-path="url(#clip0_15936_6887)">
<path d="M21.4346 33.1156C20.395 31.868 18.7315 32.0759 17.8997 33.5315L0.224727 68.8815C-0.399096 70.3371 0.640609 72.0006 2.0962 72.0006H26.6331C27.4649 72.0006 28.0887 71.5847 28.5046 70.7529C33.9111 59.7321 30.584 43.0968 21.4346 33.1156Z" fill="url(#paint0_linear_15936_6887)"/>
<path d="M34.3262 1.09218C24.553 16.6878 25.1768 33.9469 31.623 47.0472C38.0692 60.1474 43.0598 69.9207 43.4756 70.7524C43.8915 71.5842 44.5153 72.0001 45.3471 72.0001H69.8841C71.5477 72.0001 72.3794 70.3366 71.7556 68.881C71.7556 68.881 38.693 2.75571 37.8612 1.09218C37.2374 -0.363409 35.158 -0.363409 34.3262 1.09218Z" fill="#0082FF"/>
</g>
<defs>
<linearGradient id="paint0_linear_15936_6887" x1="31.0334" y1="38.6373" x2="12.4124" y2="70.8889" gradientUnits="userSpaceOnUse">
<stop stop-color="#0050D3"/>
<stop offset="0.923" stop-color="#0082FF"/>
</linearGradient>
<clipPath id="clip0_15936_6887">
<rect width="72" height="72" fill="white" transform="translate(0 0.000488281)"/>
</clipPath>
</defs>
</svg>

<svg xmlns="http://www.w3.org/2000/svg" width="72" height="72" fill="none" viewBox="0 0 72 72"><g clip-path="url(#clip0_15936_6887)"><path fill="url(#paint0_linear_15936_6887)" d="M21.435 33.116c-1.04-1.248-2.703-1.04-3.535.416L.225 68.882C-.4 70.337.64 72 2.096 72h24.537q1.248 0 1.872-1.248c5.406-11.02 2.079-27.656-7.07-37.637"/><path fill="#0082ff" d="M34.326 1.092c-9.773 15.596-9.15 32.855-2.703 45.955 6.446 13.1 11.437 22.874 11.853 23.705Q44.1 72 45.347 72h24.537c1.664 0 2.495-1.663 1.872-3.119L37.86 1.092c-.624-1.455-2.703-1.455-3.535 0"/></g><defs><linearGradient id="paint0_linear_15936_6887" x1="31.033" x2="12.412" y1="38.637" y2="70.889" gradientUnits="userSpaceOnUse"><stop stop-color="#0050d3"/><stop offset=".923" stop-color="#0082ff"/></linearGradient><clipPath id="clip0_15936_6887"><path fill="#fff" d="M0 0h72v72H0z"/></clipPath></defs></svg>
